assets/icons/folder/new.svg

<?xml version="1.0" encoding="UTF-8" standalone="no"?>
<svg
   viewBox="0 0 24 24"
   height="24"
   width="24"
   version="1.1"
   id="svg4"
   sodipodi:docname="_new.svg"
   inkscape:version="1.2 (1:1.2.1+202207142221+cd75a1ee6d)"
   xmlns:inkscape="http://www.inkscape.org/namespaces/inkscape"
   xmlns:sodipodi="http://sodipodi.sourceforge.net/DTD/sodipodi-0.dtd"
   xmlns="http://www.w3.org/2000/svg"
   xmlns:svg="http://www.w3.org/2000/svg">
  <defs
     id="defs8" />
  <sodipodi:namedview
     id="namedview6"
     pagecolor="#ffffff"
     bordercolor="#666666"
     borderopacity="1.0"
     inkscape:pageshadow="2"
     inkscape:pageopacity="0.0"
     inkscape:pagecheckerboard="0"
     showgrid="true"
     inkscape:zoom="39.59798"
     inkscape:cx="21.263711"
     inkscape:cy="20.127289"
     inkscape:window-width="1920"
     inkscape:window-height="1043"
     inkscape:window-x="0"
     inkscape:window-y="0"
     inkscape:window-maximized="1"
     inkscape:current-layer="svg4"
     inkscape:showpageshadow="2"
     inkscape:deskcolor="#d1d1d1">
    <inkscape:grid
       type="xygrid"
       id="grid821" />
    <inkscape:grid
       type="xygrid"
       id="grid823"
       dotted="true"
       spacingx="0.5"
       spacingy="0.5"
       empspacing="10" />
  </sodipodi:namedview>
  <path
     id="path858"
     style="color:#000000;fill:#808080;stroke-linecap:round;fill-opacity:1"
     d="M 5.4550781 3 C 4.4864982 3.0089807 3.7372585 3.0732698 3.1171875 3.4453125 C 2.7038068 3.693341 2.3972495 4.1012205 2.2285156 4.6074219 C 2.0597819 5.1136233 2 5.7222238 2 6.5 L 2 12.501953 L 2 17.5 C 2 18.277776 2.0585582 18.89131 2.25 19.408203 C 2.4414419 19.925097 2.8029638 20.335075 3.2773438 20.572266 C 4.2261033 21.046645 5.500004 21 7.5 21 L 14 21 L 14 20 L 7.5 20 C 5.500004 20 4.2738935 19.95335 3.7226562 19.677734 C 3.4470376 19.539926 3.3085575 19.387402 3.1875 19.060547 C 3.0664425 18.733691 3 18.22222 3 17.5 L 3 12.501953 C 3 11.779733 3.0652191 11.263329 3.1777344 10.925781 C 3.29025 10.588235 3.4211944 10.431656 3.6328125 10.304688 C 4.0560486 10.050745 5.000003 10.001953 6.5 10.001953 L 10.5 10.001953 A 0.5 0.5 0 0 0 10.533203 9.9960938 A 0.5 0.5 0 0 0 10.654297 9.9726562 A 0.5 0.5 0 0 0 10.71875 9.9453125 A 0.5 0.5 0 0 0 10.833984 9.8691406 A 0.5 0.5 0 0 0 10.853516 9.8535156 L 13.707031 7 L 17.5 7 C 18.999997 7 19.943951 7.0507463 20.367188 7.3046875 C 20.578805 7.4316584 20.70975 7.5862813 20.822266 7.9238281 C 20.934781 8.2613751 21 8.7777792 21 9.5 L 21 14 L 22 14 L 22 9.5 C 22 8.7222238 21.94022 8.1136233 21.771484 7.6074219 C 21.602751 7.1012205 21.296194 6.693341 20.882812 6.4453125 C 20.056052 5.9492557 18.999997 6 17.5 6 L 13.707031 6 L 10.853516 3.1464844 A 0.5 0.5 0 0 0 10.761719 3.0761719 A 0.5 0.5 0 0 0 10.730469 3.0585938 A 0.5 0.5 0 0 0 10.640625 3.0214844 A 0.5 0.5 0 0 0 10.621094 3.015625 A 0.5 0.5 0 0 0 10.5 3 L 6.5 3 C 6.1250008 3 5.7779381 2.9970064 5.4550781 3 z M 6.5 4 L 10.292969 4 L 12.792969 6.5 L 10.291016 9.0019531 L 6.5 9.0019531 C 5.000003 9.0019531 3.9439489 8.9512086 3.1171875 9.4472656 C 3.0768429 9.4714724 3.0382808 9.498196 3 9.5253906 L 3 6.5 C 3 5.7777792 3.0652191 5.2613751 3.1777344 4.9238281 C 3.29025 4.5862813 3.4211944 4.4316584 3.6328125 4.3046875 C 4.0560486 4.0507459 5.000003 4 6.5 4 z " />
  <path
     id="rect287"
     style="fill:#808080;stroke:none;stroke-width:2;stroke-linejoin:round;stroke-dasharray:3, 3"
     d="M 18 15 L 18 18 L 15 18 L 15 19 L 18 19 L 18 22 L 19 22 L 19 19 L 22 19 L 22 18 L 19 18 L 19 15 L 18 15 z " />
</svg>

<svg height="24" width="24" xmlns="http://www.w3.org/2000/svg"><path style="color:#000;fill:gray;stroke-linecap:round;fill-opacity:1" d="M5.455 3c-.969.009-1.718.073-2.338.445-.413.248-.72.656-.888 1.162C2.059 5.114 2 5.722 2 6.5v11c0 .778.059 1.391.25 1.908.191.517.553.927 1.027 1.164.95.475 2.223.428 4.223.428H14v-1H7.5c-2 0-3.226-.047-3.777-.322-.276-.138-.414-.29-.535-.617C3.066 18.734 3 18.222 3 17.5v-4.998c0-.722.065-1.239.178-1.576.112-.338.243-.494.455-.621.423-.254 1.367-.303 2.867-.303h4a.5.5 0 0 0 .033-.006.5.5 0 0 0 .121-.023.5.5 0 0 0 .065-.028.5.5 0 0 0 .115-.076.5.5 0 0 0 .02-.015L13.707 7H17.5c1.5 0 2.444.05 2.867.305.212.127.343.281.455.619.113.337.178.854.178 1.576V14h1V9.5c0-.778-.06-1.386-.229-1.893-.168-.506-.475-.914-.888-1.162C20.056 5.95 19 6 17.5 6h-3.793l-2.853-2.854a.5.5 0 0 0-.092-.07.5.5 0 0 0-.032-.017.5.5 0 0 0-.09-.038.5.5 0 0 0-.019-.005A.5.5 0 0 0 10.5 3h-4c-.375 0-.722-.003-1.045 0zM6.5 4h3.793l2.5 2.5-2.502 2.502H6.5c-1.5 0-2.556-.05-3.383.445-.04.024-.079.051-.117.078V6.5c0-.722.065-1.239.178-1.576.112-.338.243-.492.455-.62C4.056 4.052 5 4 6.5 4z"/><path style="fill:gray;stroke:none;stroke-width:2;stroke-linejoin:round;stroke-dasharray:3,3" d="M18 15v3h-3v1h3v3h1v-3h3v-1h-3v-3h-1z"/></svg>
